assets/img/icons/ui/layer-list.svg

<?xml version="1.0" encoding="utf-8"?>
<!-- Generated by IcoMoon.io -->
<!DOCTYPE svg PUBLIC "-//W3C//DTD SVG 1.1//EN" "http://www.w3.org/Graphics/SVG/1.1/DTD/svg11.dtd">
<svg version="1.1" xmlns="http://www.w3.org/2000/svg" xmlns:xlink="http://www.w3.org/1999/xlink" width="32" height="32" viewBox="0 0 32 32">
<path fill="rgb(0, 0, 0)" d="M3.998 8h-3.998v-4h3.998v4zM3.998 14h-3.998v4h3.998v-4zM3.998 24h-3.998v4h3.998v-4zM31.998 24h-24v4h24v-4zM31.998 14h-24v4h24v-4zM31.998 4h-24v4h24v-4z"></path>
</svg>

<svg xmlns="http://www.w3.org/2000/svg" width="32" height="32" viewBox="0 0 32 32"><path d="M3.998 8H0V4h3.998v4zm0 6H0v4h3.998v-4zm0 10H0v4h3.998v-4zm28 0h-24v4h24v-4zm0-10h-24v4h24v-4zm0-10h-24v4h24V4z"/></svg>
